z_dist/img/icons/crypto/zcash-ZEC.svg

<svg width="64" height="64" viewBox="0 0 64 64" fill="none" xmlns="http://www.w3.org/2000/svg">
<rect y="0.000488281" width="64" height="64" rx="4" fill="#EDF0F4"/>
<path fill-rule="evenodd" clip-rule="evenodd" d="M23.6987 51.6575C26.3291 52.769 29.1223 53.3339 32.0023 53.3339C34.8829 53.3339 37.6746 52.769 40.3059 51.6486C45.4191 49.4808 49.4894 45.4104 51.6569 40.2971C52.7684 37.6667 53.3333 34.8735 53.3333 31.9935C53.3407 23.4177 48.2072 15.6728 40.3059 12.3391C37.6746 11.2277 34.8736 10.6672 31.9976 10.6672C23.4217 10.6597 15.6767 15.7932 12.343 23.6947C11.2315 26.3259 10.6666 29.1176 10.6666 31.9982C10.6666 34.8789 11.2315 37.6714 12.3477 40.3065C14.5153 45.4196 18.5856 49.4899 23.6987 51.6575ZM20.2668 20.263C23.402 17.133 27.5701 15.405 32.0021 15.405L32.0017 15.4054C36.4337 15.4054 40.6009 17.1327 43.7369 20.2634C46.8669 23.3986 48.5949 27.5667 48.5949 31.9987C48.5949 36.4307 46.8676 40.5979 43.7369 43.7339C40.6018 46.8639 36.4337 48.5919 32.0017 48.5919C27.5697 48.5919 23.4024 46.8646 20.2664 43.7339C17.1362 40.5979 15.4088 36.4302 15.4088 31.9982C15.4088 27.5662 17.1308 23.399 20.2668 20.263Z" fill="black"/>
<path d="M30.7211 37.3099H39.9648V41.955H34.2731C34.3657 43.2841 34.4167 44.515 34.5093 45.8405H29.7204V42.0005H24.0286C24.0286 40.4815 23.8388 38.9671 24.1212 37.5452C24.2648 36.7858 25.1168 36.1236 25.6401 35.4612C27.4417 33.3261 29.2431 31.2423 31.091 29.1073C31.8042 28.3015 32.5127 27.542 33.3186 26.6435H24.4547V21.9994H29.7157V18.1138H34.3143V21.9066H40.0529C40.0529 23.4718 40.2428 24.9863 39.9604 26.4126C39.8168 27.1721 38.9647 27.8343 38.3951 28.4967C36.5935 30.6317 34.7921 32.7156 32.9442 34.8506C32.2402 35.6982 31.5318 36.453 30.7213 37.3097" fill="black"/>
</svg>

<svg width="64" height="64" fill="none" xmlns="http://www.w3.org/2000/svg"><rect width="64" height="64" rx="4" fill="#EDF0F4"/><path fill-rule="evenodd" clip-rule="evenodd" d="M23.699 51.657a21.216 21.216 0 008.303 1.677c2.88 0 5.673-.565 8.304-1.685a21.402 21.402 0 0011.35-11.352 21.216 21.216 0 001.677-8.303 21.312 21.312 0 00-13.027-19.655 21.254 21.254 0 00-8.308-1.672 21.312 21.312 0 00-21.331 21.331c0 2.88.565 5.673 1.68 8.308A21.402 21.402 0 0023.7 51.659zm-3.432-31.394a16.507 16.507 0 0111.735-4.858c4.432 0 8.599 1.728 11.735 4.858A16.507 16.507 0 0148.595 32c0 4.432-1.727 8.599-4.858 11.735a16.506 16.506 0 01-11.735 4.858c-4.432 0-8.6-1.727-11.736-4.858a16.508 16.508 0 01-4.857-11.736c0-4.432 1.722-8.599 4.858-11.735z" fill="#000"/><path d="M30.721 37.31h9.244v4.645h-5.692c.093 1.33.144 2.56.236 3.886H29.72V42h-5.69c0-1.52-.19-3.034.092-4.456.144-.76.996-1.421 1.52-2.084a663.57 663.57 0 015.45-6.354c.713-.805 1.422-1.565 2.228-2.463h-8.864v-4.645h5.26v-3.885h4.6v3.793h5.738c0 1.565.19 3.08-.093 4.506-.143.76-.995 1.421-1.565 2.084a664.799 664.799 0 01-5.45 6.354c-.705.847-1.413 1.602-2.224 2.459" fill="#000"/></svg>
